src/Pure/16/symbolic/actions/mail-mark-junk-symbolic.svg

<?xml version="1.0" encoding="UTF-8" standalone="no"?>
<svg
   height="16"
   width="16"
   enable-background="new"
   version="1.1"
   id="svg1"
   sodipodi:docname="mail-mark-junk-symbolic.svg"
   inkscape:version="1.4.2 (ebf0e940d0, 2025-05-08)"
   xmlns:inkscape="http://www.inkscape.org/namespaces/inkscape"
   xmlns:sodipodi="http://sodipodi.sourceforge.net/DTD/sodipodi-0.dtd"
   xmlns="http://www.w3.org/2000/svg"
   xmlns:svg="http://www.w3.org/2000/svg">
  <sodipodi:namedview
     id="namedview1"
     pagecolor="#ffffff"
     bordercolor="#000000"
     borderopacity="0.25"
     inkscape:showpageshadow="2"
     inkscape:pageopacity="0.0"
     inkscape:pagecheckerboard="0"
     inkscape:deskcolor="#d1d1d1"
     inkscape:zoom="49.6875"
     inkscape:cx="8"
     inkscape:cy="8"
     inkscape:window-width="1920"
     inkscape:window-height="1010"
     inkscape:window-x="0"
     inkscape:window-y="0"
     inkscape:window-maximized="1"
     inkscape:current-layer="svg1" />
  <defs
     id="defs1">
     <style
        id="current-color-scheme"
        type="text/css">
        .ColorScheme-Text { color:#363636; }
     </style>
  </defs>
  <path
     id="path1"
     style="fill:currentColor"
     class="ColorScheme-Text"
     d="M 5.21875 1 L 4.90625 1.28125 L 1.28125 4.90625 L 1 5.2207031 L 1 10.779297 L 1.28125 11.09375 L 4.90625 14.71875 L 5.21875 14.998047 L 10.779297 14.998047 L 11.09375 14.71875 L 14.71875 11.09375 L 14.998047 10.779297 L 14.998047 5.2207031 L 14.71875 4.90625 L 11.09375 1.28125 L 10.779297 1 L 5.2207031 1 L 5.21875 1 z M 5.625 2 L 10.375 2 L 14 5.625 L 14 10.375 L 10.375 14 L 5.625 14 L 2 10.375 L 2 5.625 L 5.625 2 z M 7 4 C 7 7.349 7.003 8.315 7 9 L 9 9 C 8.995 7 8.991 6 9 4 L 7 4 z M 7 10 L 7 12 L 9 12 L 9 10 L 7 10 z " />
</svg>

<svg xmlns="http://www.w3.org/2000/svg" height="16" width="16" enable-background="new"><defs><filter id="a" color-interpolation-filters="sRGB"><feBlend in2="BackgroundImage" mode="darken"/></filter></defs><path d="M5.219 1l-.313.281-3.625 3.625L1 5.22V10.78l.281.313 3.625 3.625.313.281H10.78l.313-.281 3.625-3.625.281-.313V5.22l-.281-.313-3.625-3.625L10.78 1H5.22zm.406 1h4.75L14 5.625v4.75L10.375 14h-4.75L2 10.375v-4.75L5.625 2zM7 4c0 3.349.003 4.315 0 5h2c-.005-2-.009-3 0-5H7zm0 6v2h2v-2H7z" style="line-height:normal;-inkscape-font-specification:Sans;text-indent:0;text-align:start;text-decoration-line:none;text-transform:none;block-progression:tb;marker:none" color="#000" font-weight="400" font-family="Sans" overflow="visible" fill="#363636" enable-background="accumulate"/></svg>
